X:1
T:Title
%%score { 1 | 2 }
L:1/8
M:4/4
K:Ab
V:1 treble nm="Grand Piano"
V:2 bass 
V:1
 z4 z2[Q:1/4=100] [CA]>[DB] | [Ec]2 [DB][Ec] [CA]2 [CG][CA] | [FB]2 [FA][DF] [CE]2 cd | %3
 e2 cB A2 [=DB][Dc] | B6 Bc | d2 c[EB] [Ee]2 [Ec][EB] | [FA]2 [FA][FB] [Ec]2 [Ec]>[DB] | %7
 [CA]2 [CA][CA] [=DA] [DG]2 [DA] |[M:9/8] [EB]8- [EB] |[M:1/4] [A,C]>[B,D] | %10
[M:4/4] [CE]2 [CE]>[DF] [CE] [EA]2 B | c2 [FA][DF] [CE]2 cd | e2 e>f e2 [Ec][EB] | %13
[M:9/8] [EA]2 [EB] [Ec] B2- Bcd |[M:4/4] e2 cB A2 [EA][EB] | %15
 [Ec]2 [A,FA][A,DF] [A,CE]2 [G,B,E]>[G,B,E] |[M:9/8] [A,EA]2 A Bcc- c2 B |[M:3/4] [CA]6 |] %18
V:2
 z4 z2 [A,,A,]>[A,,A,] | [A,,A,]2 [A,,A,][A,,A,] [A,,E,]2 [A,,A,][A,,A,] | %2
 [D,A,]2 [D,A,][D,A,] [A,,A,]2[K:treble] [A,E][A,B,E] | %3
 [A,CA]2 [A,E][A,DE][K:bass] [A,CE]2 [B,,A,][B,,A,] | [E,G,E]6 [E,G,E][E,A,E] | %5
 [E,B,E]2 [E,A,E][D,G,] [C,A,]2 [A,,A,][C,A,] | [D,A,]2 [D,A,][D,A,] [A,,A,]2 [A,,A,]>[A,,A,] | %7
 [A,,E,]2 [A,,E,][A,,E,] [B,,A,] [B,,A,]2 [B,,F,] |[M:9/8] [E,G,]8- [E,G,] | %9
[M:1/4] [A,,E,]>[A,,E,] |[M:4/4] [A,,A,]2 [A,,A,]>[A,,A,] [A,,A,] [C,A,]2 [E,G,E] | %11
 [A,E]2 [D,A,][D,A,] [A,,A,]2[K:treble] [A,E][A,B,E] | %12
 [A,CA]2 [A,CA]>[A,DA] [A,CA]2[K:bass] [A,,A,][B,,G,] | %13
[M:9/8] [C,A,]2 [B,,G,] [A,,A,] [E,G,E]2- [E,G,E][K:treble][A,E][A,B,E] | %14
[M:4/4] [A,CA]2 [A,E][A,DE][K:bass] [A,CE]2 [C,A,][E,G,] | A,2 D,D, A,,2 E,>D, | %16
[M:9/8] C,2 [F,A,=D] [F,A,D][E,A,E][E,A,E]- [E,A,E]2 [E,G,_D] |[M:3/4] [A,,A,]6 |] %18

